docs/public/img/open_in_stackblitz_small.svg

<svg width="137" height="20" viewBox="0 0 137 20" fill="none" xmlns="http://www.w3.org/2000/svg">
<rect width="137" height="20" rx="4" fill="#1374EF"/>
<path d="M8 11.0588H11.4434L9.41796 16L16 8.9412H12.5566L14.582 4L8 11.0588Z" fill="white"/>
<path d="M35.9375 10C35.9375 10.862 35.776 11.6003 35.4531 12.2148C35.1328 12.8268 34.6953 13.2956 34.1406 13.6211C33.5885 13.9466 32.9622 14.1094 32.2617 14.1094C31.5612 14.1094 30.9336 13.9466 30.3789 13.6211C29.8268 13.293 29.3893 12.8229 29.0664 12.2109C28.7461 11.5964 28.5859 10.8594 28.5859 10C28.5859 9.13802 28.7461 8.40104 29.0664 7.78906C29.3893 7.17448 29.8268 6.70443 30.3789 6.37891C30.9336 6.05339 31.5612 5.89062 32.2617 5.89062C32.9622 5.89062 33.5885 6.05339 34.1406 6.37891C34.6953 6.70443 35.1328 7.17448 35.4531 7.78906C35.776 8.40104 35.9375 9.13802 35.9375 10ZM34.4805 10C34.4805 9.39323 34.3854 8.88151 34.1953 8.46484C34.0078 8.04557 33.7474 7.72917 33.4141 7.51563C33.0807 7.29948 32.6966 7.19141 32.2617 7.19141C31.8268 7.19141 31.4427 7.29948 31.1094 7.51563C30.776 7.72917 30.5143 8.04557 30.3242 8.46484C30.1367 8.88151 30.043 9.39323 30.043 10C30.043 10.6068 30.1367 11.1198 30.3242 11.5391C30.5143 11.9557 30.776 12.2721 31.1094 12.4883C31.4427 12.7018 31.8268 12.8086 32.2617 12.8086C32.6966 12.8086 33.0807 12.7018 33.4141 12.4883C33.7474 12.2721 34.0078 11.9557 34.1953 11.5391C34.3854 11.1198 34.4805 10.6068 34.4805 10ZM37.4101 16.25V8H38.8007V8.99219H38.8828C38.9557 8.84635 39.0586 8.69141 39.1914 8.52734C39.3242 8.36068 39.5039 8.21875 39.7304 8.10156C39.957 7.98177 40.2461 7.92188 40.5976 7.92188C41.0612 7.92188 41.4791 8.04036 41.8515 8.27734C42.2265 8.51172 42.5234 8.85937 42.7421 9.32031C42.9635 9.77865 43.0742 10.3411 43.0742 11.0078C43.0742 11.6667 42.9661 12.2266 42.75 12.6875C42.5338 13.1484 42.2395 13.5 41.8671 13.7422C41.4948 13.9844 41.0729 14.1055 40.6015 14.1055C40.2578 14.1055 39.9726 14.0482 39.7461 13.9336C39.5195 13.819 39.3372 13.681 39.1992 13.5195C39.0638 13.3555 38.9583 13.2005 38.8828 13.0547H38.8242V16.25H37.4101ZM38.7968 11C38.7968 11.388 38.8515 11.7279 38.9609 12.0195C39.0729 12.3112 39.233 12.5391 39.4414 12.7031C39.6523 12.8646 39.9075 12.9453 40.207 12.9453C40.5195 12.9453 40.7812 12.862 40.9921 12.6953C41.2031 12.526 41.3619 12.2956 41.4687 12.0039C41.5781 11.7096 41.6328 11.375 41.6328 11C41.6328 10.6276 41.5794 10.2969 41.4726 10.0078C41.3658 9.71875 41.207 9.49219 40.9961 9.32812C40.7851 9.16406 40.5221 9.08203 40.207 9.08203C39.9049 9.08203 39.6484 9.16146 39.4375 9.32031C39.2265 9.47917 39.0664 9.70182 38.957 9.98828C38.8502 10.2747 38.7968 10.612 38.7968 11ZM47.1064 14.1172C46.5048 14.1172 45.9853 13.9922 45.5478 13.7422C45.1129 13.4896 44.7782 13.1328 44.5439 12.6719C44.3095 12.2083 44.1923 11.6628 44.1923 11.0352C44.1923 10.418 44.3095 9.8763 44.5439 9.41016C44.7808 8.94141 45.1116 8.57682 45.5361 8.31641C45.9605 8.05339 46.4592 7.92188 47.0321 7.92188C47.4019 7.92188 47.7509 7.98177 48.079 8.10156C48.4098 8.21875 48.7014 8.40104 48.954 8.64844C49.2092 8.89583 49.4098 9.21094 49.5556 9.59375C49.7014 9.97396 49.7743 10.4271 49.7743 10.9531V11.3867H44.8564V10.4336H48.4189C48.4163 10.1628 48.3577 9.92187 48.2431 9.71094C48.1285 9.4974 47.9683 9.32943 47.7626 9.20703C47.5595 9.08464 47.3225 9.02344 47.0517 9.02344C46.7626 9.02344 46.5087 9.09375 46.29 9.23437C46.0712 9.3724 45.9006 9.55469 45.7782 9.78125C45.6585 10.0052 45.5973 10.2513 45.5946 10.5195V11.3516C45.5946 11.7005 45.6585 12 45.7861 12.25C45.9137 12.4974 46.092 12.6875 46.3212 12.8203C46.5504 12.9505 46.8186 13.0156 47.1259 13.0156C47.3316 13.0156 47.5178 12.987 47.6845 12.9297C47.8512 12.8698 47.9957 12.7826 48.1181 12.668C48.2405 12.5534 48.3329 12.4115 48.3954 12.2422L49.7157 12.3906C49.6324 12.7396 49.4736 13.0443 49.2392 13.3047C49.0074 13.5625 48.7105 13.763 48.3486 13.9062C47.9866 14.0469 47.5725 14.1172 47.1064 14.1172ZM52.5497 10.4844V14H51.1356V8H52.4872V9.01953H52.5575C52.6955 8.68359 52.9156 8.41667 53.2177 8.21875C53.5223 8.02083 53.8986 7.92188 54.3466 7.92188C54.7606 7.92188 55.1213 8.01042 55.4286 8.1875C55.7385 8.36458 55.9781 8.62109 56.1473 8.95703C56.3192 9.29297 56.4039 9.70052 56.4013 10.1797V14H54.9872V10.3984C54.9872 9.9974 54.883 9.68359 54.6747 9.45703C54.469 9.23047 54.1838 9.11719 53.8192 9.11719C53.5718 9.11719 53.3518 9.17187 53.1591 9.28125C52.969 9.38802 52.8192 9.54297 52.7098 9.74609C52.6031 9.94922 52.5497 10.1953 52.5497 10.4844ZM60.8973 14V8H62.3113V14H60.8973ZM61.6082 7.14844C61.3842 7.14844 61.1915 7.07422 61.0301 6.92578C60.8686 6.77474 60.7879 6.59375 60.7879 6.38281C60.7879 6.16927 60.8686 5.98828 61.0301 5.83984C61.1915 5.6888 61.3842 5.61328 61.6082 5.61328C61.8348 5.61328 62.0275 5.6888 62.1863 5.83984C62.3478 5.98828 62.4285 6.16927 62.4285 6.38281C62.4285 6.59375 62.3478 6.77474 62.1863 6.92578C62.0275 7.07422 61.8348 7.14844 61.6082 7.14844ZM65.3445 10.4844V14H63.9304V8H65.282V9.01953H65.3523C65.4903 8.68359 65.7104 8.41667 66.0125 8.21875C66.3172 8.02083 66.6935 7.92188 67.1414 7.92188C67.5554 7.92188 67.9161 8.01042 68.2234 8.1875C68.5333 8.36458 68.7729 8.62109 68.9422 8.95703C69.114 9.29297 69.1987 9.70052 69.1961 10.1797V14H67.782V10.3984C67.782 9.9974 67.6778 9.68359 67.4695 9.45703C67.2638 9.23047 66.9786 9.11719 66.614 9.11719C66.3666 9.11719 66.1466 9.17187 65.9539 9.28125C65.7638 9.38802 65.614 9.54297 65.5047 9.74609C65.3979 9.94922 65.3445 10.1953 65.3445 10.4844ZM78.1022 8.19922C78.0658 7.85807 77.9121 7.59245 77.6413 7.40234C77.3731 7.21224 77.0241 7.11719 76.5944 7.11719C76.2923 7.11719 76.0332 7.16276 75.8171 7.25391C75.6009 7.34505 75.4356 7.46875 75.321 7.625C75.2064 7.78125 75.1478 7.95964 75.1452 8.16016C75.1452 8.32682 75.183 8.47135 75.2585 8.59375C75.3366 8.71615 75.4421 8.82031 75.5749 8.90625C75.7077 8.98958 75.8548 9.0599 76.0163 9.11719C76.1777 9.17448 76.3405 9.22266 76.5046 9.26172L77.2546 9.44922C77.5567 9.51953 77.847 9.61458 78.1257 9.73437C78.4069 9.85417 78.6582 10.0052 78.8796 10.1875C79.1035 10.3698 79.2806 10.5898 79.4108 10.8477C79.541 11.1055 79.6061 11.4076 79.6061 11.7539C79.6061 12.2227 79.4863 12.6354 79.2468 12.9922C79.0072 13.3464 78.6608 13.6237 78.2077 13.8242C77.7572 14.0221 77.2116 14.1211 76.571 14.1211C75.9486 14.1211 75.4082 14.0247 74.9499 13.832C74.4942 13.6393 74.1374 13.3581 73.8796 12.9883C73.6244 12.6185 73.4863 12.168 73.4655 11.6367H74.8913C74.9121 11.9154 74.9981 12.1471 75.1491 12.332C75.3001 12.5169 75.4968 12.6549 75.7389 12.7461C75.9837 12.8372 76.2572 12.8828 76.5593 12.8828C76.8744 12.8828 77.1504 12.8359 77.3874 12.7422C77.627 12.6458 77.8145 12.513 77.9499 12.3437C78.0853 12.1719 78.1543 11.9714 78.1569 11.7422C78.1543 11.5339 78.0931 11.362 77.9733 11.2266C77.8535 11.0885 77.6856 10.974 77.4694 10.8828C77.2559 10.7891 77.0059 10.7057 76.7194 10.6328L75.8093 10.3984C75.1504 10.2292 74.6296 9.97266 74.2468 9.62891C73.8665 9.28255 73.6764 8.82292 73.6764 8.25C73.6764 7.77865 73.804 7.36589 74.0593 7.01172C74.3171 6.65755 74.6673 6.38281 75.11 6.1875C75.5527 5.98958 76.054 5.89062 76.6139 5.89062C77.1817 5.89062 77.679 5.98958 78.1061 6.1875C78.5358 6.38281 78.8731 6.65495 79.1179 7.00391C79.3626 7.35026 79.4889 7.7487 79.4968 8.19922H78.1022ZM83.9967 8V9.09375H80.5475V8H83.9967ZM81.3991 6.5625H82.8131V12.1953C82.8131 12.3854 82.8418 12.5313 82.8991 12.6328C82.959 12.7318 83.0371 12.7995 83.1334 12.8359C83.2298 12.8724 83.3366 12.8906 83.4538 12.8906C83.5423 12.8906 83.623 12.8841 83.6959 12.8711C83.7715 12.8581 83.8288 12.8464 83.8678 12.8359L84.1061 13.9414C84.0306 13.9674 83.9225 13.9961 83.7819 14.0273C83.6439 14.0586 83.4746 14.0768 83.2741 14.082C82.9199 14.0924 82.6009 14.0391 82.317 13.9219C82.0332 13.8021 81.8079 13.6172 81.6413 13.3672C81.4772 13.1172 81.3965 12.8047 81.3991 12.4297V6.5625ZM87.0709 14.1211C86.6907 14.1211 86.3482 14.0534 86.0436 13.918C85.7415 13.7799 85.5019 13.5768 85.3248 13.3086C85.1503 13.0404 85.0631 12.7096 85.0631 12.3164C85.0631 11.9779 85.1256 11.6979 85.2506 11.4766C85.3756 11.2552 85.5462 11.0781 85.7623 10.9453C85.9785 10.8125 86.2219 10.7122 86.4928 10.6445C86.7662 10.5742 87.0488 10.5234 87.3404 10.4922C87.692 10.4557 87.9772 10.4232 88.1959 10.3945C88.4147 10.3633 88.5735 10.3164 88.6725 10.2539C88.774 10.1888 88.8248 10.0885 88.8248 9.95312V9.92969C88.8248 9.63542 88.7376 9.40755 88.5631 9.24609C88.3886 9.08464 88.1373 9.00391 87.8092 9.00391C87.4628 9.00391 87.1881 9.07943 86.985 9.23047C86.7844 9.38151 86.649 9.5599 86.5787 9.76562L85.2584 9.57812C85.3626 9.21354 85.5344 8.90885 85.774 8.66406C86.0136 8.41667 86.3066 8.23177 86.6529 8.10937C86.9993 7.98438 87.3821 7.92188 87.8014 7.92188C88.0904 7.92188 88.3782 7.95573 88.6647 8.02344C88.9511 8.09115 89.2128 8.20312 89.4498 8.35937C89.6868 8.51302 89.8769 8.72266 90.0201 8.98828C90.166 9.25391 90.2389 9.58594 90.2389 9.98437V14H88.8795V13.1758H88.8326C88.7467 13.3424 88.6256 13.4987 88.4693 13.6445C88.3157 13.7878 88.1217 13.9036 87.8873 13.9922C87.6555 14.0781 87.3834 14.1211 87.0709 14.1211ZM87.4381 13.082C87.7219 13.082 87.968 13.026 88.1764 12.9141C88.3847 12.7995 88.5449 12.6484 88.6568 12.4609C88.7714 12.2734 88.8287 12.069 88.8287 11.8477V11.1406C88.7844 11.1771 88.7089 11.2109 88.6021 11.2422C88.498 11.2734 88.3808 11.3008 88.2506 11.3242C88.1204 11.3477 87.9915 11.3685 87.8639 11.3867C87.7363 11.4049 87.6256 11.4206 87.5318 11.4336C87.3209 11.4622 87.1321 11.5091 86.9654 11.5742C86.7988 11.6393 86.6673 11.7305 86.5709 11.8477C86.4745 11.9622 86.4264 12.1107 86.4264 12.293C86.4264 12.5534 86.5214 12.75 86.7115 12.8828C86.9016 13.0156 87.1438 13.082 87.4381 13.082ZM94.4429 14.1172C93.844 14.1172 93.3296 13.9857 92.9 13.7227C92.4729 13.4596 92.1434 13.0964 91.9117 12.6328C91.6825 12.1667 91.5679 11.6302 91.5679 11.0234C91.5679 10.4141 91.6851 9.8763 91.9195 9.41016C92.1539 8.94141 92.4846 8.57682 92.9117 8.31641C93.3414 8.05339 93.8492 7.92188 94.4351 7.92188C94.9221 7.92188 95.3531 8.01172 95.7281 8.19141C96.1057 8.36849 96.4065 8.61979 96.6304 8.94531C96.8544 9.26823 96.982 9.64583 97.0132 10.0781H95.6617C95.607 9.78906 95.4768 9.54818 95.2711 9.35547C95.0679 9.16016 94.7958 9.0625 94.4546 9.0625C94.1656 9.0625 93.9117 9.14062 93.6929 9.29687C93.4742 9.45052 93.3036 9.67187 93.1812 9.96094C93.0614 10.25 93.0015 10.5964 93.0015 11C93.0015 11.4089 93.0614 11.7604 93.1812 12.0547C93.301 12.3464 93.469 12.5716 93.6851 12.7305C93.9039 12.8867 94.1604 12.9648 94.4546 12.9648C94.663 12.9648 94.8492 12.9258 95.0132 12.8477C95.1799 12.7669 95.3192 12.651 95.4312 12.5C95.5432 12.349 95.62 12.1654 95.6617 11.9492H97.0132C96.9794 12.3737 96.8544 12.75 96.6382 13.0781C96.4221 13.4036 96.1278 13.6589 95.7554 13.8437C95.383 14.026 94.9455 14.1172 94.4429 14.1172ZM99.6284 12.1172L99.6245 10.4102H99.8511L102.007 8H103.66L101.007 10.9531H100.714L99.6284 12.1172ZM98.3394 14V6H99.7534V14H98.3394ZM102.105 14L100.152 11.2695L101.105 10.2734L103.796 14H102.105ZM104.83 14V6H107.892C108.47 6 108.951 6.09115 109.333 6.27344C109.719 6.45312 110.007 6.69922 110.197 7.01172C110.389 7.32422 110.486 7.67839 110.486 8.07422C110.486 8.39974 110.423 8.67839 110.298 8.91016C110.173 9.13932 110.005 9.32552 109.794 9.46875C109.583 9.61198 109.348 9.71484 109.087 9.77734V9.85547C109.371 9.87109 109.643 9.95833 109.904 10.1172C110.167 10.2734 110.382 10.4948 110.548 10.7812C110.715 11.0677 110.798 11.4141 110.798 11.8203C110.798 12.2344 110.698 12.6068 110.498 12.9375C110.297 13.2656 109.995 13.5247 109.591 13.7148C109.188 13.9049 108.68 14 108.068 14H104.83ZM106.279 12.7891H107.837C108.363 12.7891 108.742 12.6888 108.974 12.4883C109.208 12.2852 109.326 12.0247 109.326 11.707C109.326 11.4701 109.267 11.2565 109.15 11.0664C109.033 10.8737 108.866 10.7227 108.65 10.6133C108.434 10.5013 108.176 10.4453 107.876 10.4453H106.279V12.7891ZM106.279 9.40234H107.712C107.962 9.40234 108.188 9.35677 108.388 9.26562C108.589 9.17187 108.746 9.04036 108.861 8.87109C108.978 8.69922 109.037 8.49609 109.037 8.26172C109.037 7.95182 108.927 7.69661 108.708 7.49609C108.492 7.29557 108.171 7.19531 107.744 7.19531H106.279V9.40234ZM113.576 6V14H112.162V6H113.576ZM115.195 14V8H116.609V14H115.195ZM115.906 7.14844C115.682 7.14844 115.489 7.07422 115.328 6.92578C115.166 6.77474 115.085 6.59375 115.085 6.38281C115.085 6.16927 115.166 5.98828 115.328 5.83984C115.489 5.6888 115.682 5.61328 115.906 5.61328C116.132 5.61328 116.325 5.6888 116.484 5.83984C116.645 5.98828 116.726 6.16927 116.726 6.38281C116.726 6.59375 116.645 6.77474 116.484 6.92578C116.325 7.07422 116.132 7.14844 115.906 7.14844ZM121.224 8V9.09375H117.775V8H121.224ZM118.626 6.5625H120.04V12.1953C120.04 12.3854 120.069 12.5313 120.126 12.6328C120.186 12.7318 120.264 12.7995 120.361 12.8359C120.457 12.8724 120.564 12.8906 120.681 12.8906C120.77 12.8906 120.85 12.8841 120.923 12.8711C120.999 12.8581 121.056 12.8464 121.095 12.8359L121.333 13.9414C121.258 13.9674 121.15 13.9961 121.009 14.0273C120.871 14.0586 120.702 14.0768 120.501 14.082C120.147 14.0924 119.828 14.0391 119.544 13.9219C119.26 13.8021 119.035 13.6172 118.869 13.3672C118.704 13.1172 118.624 12.8047 118.626 12.4297V6.5625ZM122.493 14V13.1016L125.587 9.22266V9.17187H122.595V8H127.318V8.96484L124.372 12.7773V12.8281H127.419V14H122.493Z" fill="white"/>
<rect x="22" width="1" height="20" fill="#1269D3"/>
</svg>

<svg xmlns="http://www.w3.org/2000/svg" viewBox="0 0 137 20" width="137" height="20">
  <title>Open in StackBlitz</title>
  <rect width="137" height="20" rx="4" fill="#1374EF"/>
  <path fill="#1269D3" d="M22 0h1v20h-1z"/>
  <path d="M8 11.059h3.443L9.418 16 16 8.941h-3.443L14.582 4 8 11.059ZM35.938 10c0 .862-.162 1.6-.485 2.215a3.43 3.43 0 0 1-1.312 1.406c-.552.326-1.179.488-1.88.488-.7 0-1.327-.162-1.882-.488-.552-.328-.99-.798-1.313-1.41-.32-.615-.48-1.352-.48-2.211 0-.862.16-1.599.48-2.21.323-.616.76-1.086 1.313-1.411.555-.326 1.182-.488 1.883-.488.7 0 1.327.162 1.879.488.554.325.992.795 1.312 1.41.323.612.484 1.349.484 2.211Zm-1.458 0c0-.607-.095-1.118-.285-1.535-.187-.42-.448-.736-.78-.95a2.071 2.071 0 0 0-1.153-.324 2.07 2.07 0 0 0-1.153.325c-.333.213-.595.53-.785.949-.187.417-.281.928-.281 1.535 0 .607.094 1.12.281 1.54.19.416.452.732.785.948.334.214.718.32 1.153.32a2.09 2.09 0 0 0 1.152-.32c.333-.216.594-.532.781-.949.19-.42.285-.932.285-1.539Zm2.93 6.25V8h1.39v.992h.083c.073-.146.176-.3.308-.465.133-.166.313-.308.54-.425.226-.12.515-.18.867-.18.463 0 .881.118 1.254.355.375.235.671.582.89 1.043.222.459.332 1.021.332 1.688 0 .659-.108 1.219-.324 1.68-.216.46-.51.812-.883 1.054a2.27 2.27 0 0 1-1.265.363c-.344 0-.63-.057-.856-.171a1.74 1.74 0 0 1-.547-.414 2.68 2.68 0 0 1-.316-.465h-.059v3.195H37.41ZM38.797 11c0 .388.055.728.164 1.02.112.291.272.52.48.683.211.162.466.242.766.242.313 0 .574-.083.785-.25.211-.169.37-.4.477-.691.11-.294.164-.629.164-1.004 0-.372-.054-.703-.16-.992a1.49 1.49 0 0 0-.477-.68c-.21-.164-.474-.246-.789-.246-.302 0-.559.08-.77.238a1.465 1.465 0 0 0-.48.668c-.107.287-.16.624-.16 1.012Zm8.31 3.117c-.602 0-1.122-.125-1.56-.375a2.54 2.54 0 0 1-1.003-1.07c-.234-.464-.352-1.01-.352-1.637 0-.617.117-1.159.352-1.625.237-.469.568-.833.992-1.094.425-.263.923-.394 1.496-.394.37 0 .719.06 1.047.18.33.117.622.299.875.546.255.248.456.563.602.946.145.38.218.833.218 1.36v.433h-4.918v-.953h3.563a1.52 1.52 0 0 0-.176-.723 1.279 1.279 0 0 0-.48-.504 1.35 1.35 0 0 0-.711-.184c-.29 0-.543.07-.762.211-.219.138-.39.32-.512.547-.12.224-.18.47-.183.739v.832c0 .348.063.648.191.898.128.247.306.438.535.57.23.13.498.196.805.196.206 0 .392-.029.559-.086a1.24 1.24 0 0 0 .433-.262 1.09 1.09 0 0 0 .277-.426l1.32.149a2.057 2.057 0 0 1-.476.914 2.324 2.324 0 0 1-.89.601c-.362.14-.776.211-1.243.211Zm5.443-3.633V14h-1.414V8h1.351v1.02h.07c.139-.336.359-.603.66-.801.305-.198.682-.297 1.13-.297.414 0 .774.088 1.082.266.31.177.55.433.718.769.172.336.257.744.254 1.223V14h-1.414v-3.602c0-.4-.104-.714-.312-.941-.206-.227-.491-.34-.856-.34-.247 0-.467.055-.66.164-.19.107-.34.262-.45.465a1.57 1.57 0 0 0-.16.738ZM60.897 14V8h1.414v6h-1.414Zm.711-6.852a.825.825 0 0 1-.578-.222.718.718 0 0 1-.242-.543.71.71 0 0 1 .242-.543.817.817 0 0 1 .578-.227c.227 0 .42.076.578.227a.71.71 0 0 1 .242.543c0 .21-.08.392-.242.543a.816.816 0 0 1-.578.222Zm3.736 3.336V14H63.93V8h1.352v1.02h.07c.138-.336.358-.603.66-.801.305-.198.681-.297 1.13-.297.413 0 .774.088 1.081.266.31.177.55.433.72.769.171.336.256.744.253 1.223V14h-1.414v-3.602c0-.4-.104-.714-.313-.941-.205-.227-.49-.34-.855-.34-.247 0-.467.055-.66.164-.19.107-.34.262-.45.465a1.57 1.57 0 0 0-.16.738ZM78.102 8.2a1.066 1.066 0 0 0-.46-.797c-.269-.19-.618-.285-1.048-.285-.302 0-.56.046-.777.137a1.15 1.15 0 0 0-.496.371.902.902 0 0 0-.063.969c.079.122.184.226.317.312.133.084.28.154.441.211.162.057.325.106.489.145l.75.187c.302.07.592.166.87.285.282.12.533.271.755.454.224.182.4.402.53.66.131.257.196.56.196.906 0 .469-.12.881-.36 1.238-.239.354-.585.632-1.038.832-.45.198-.996.297-1.637.297-.622 0-1.163-.096-1.621-.289a2.414 2.414 0 0 1-1.07-.844c-.256-.37-.394-.82-.414-1.351h1.425c.021.278.107.51.258.695.151.185.348.323.59.414.245.091.518.137.82.137.315 0 .591-.047.828-.14.24-.097.427-.23.563-.4a.962.962 0 0 0 .207-.6.765.765 0 0 0-.184-.516 1.345 1.345 0 0 0-.504-.344 4.857 4.857 0 0 0-.75-.25l-.91-.235c-.659-.169-1.18-.425-1.562-.77-.38-.345-.57-.805-.57-1.378 0-.471.127-.884.382-1.238a2.53 2.53 0 0 1 1.051-.824 3.647 3.647 0 0 1 1.504-.297c.568 0 1.065.099 1.492.296.43.196.767.468 1.012.817.245.346.37.745.379 1.195h-1.395ZM83.997 8v1.094h-3.45V8h3.45Zm-2.598-1.438h1.414v5.633c0 .19.029.336.086.438.06.099.138.167.234.203a.898.898 0 0 0 .32.055c.09 0 .17-.007.243-.02.076-.013.133-.025.172-.035l.238 1.105a3.155 3.155 0 0 1-.324.086 2.65 2.65 0 0 1-.508.055 2.306 2.306 0 0 1-.957-.16 1.489 1.489 0 0 1-.676-.555c-.164-.25-.245-.562-.242-.937V6.563Zm5.672 7.56c-.38 0-.723-.069-1.027-.204a1.678 1.678 0 0 1-.72-.61c-.174-.268-.26-.598-.26-.992 0-.338.062-.618.187-.84.125-.22.295-.398.511-.53.216-.133.46-.234.73-.301.274-.07.557-.122.848-.153.352-.036.637-.069.856-.098.219-.03.377-.078.477-.14.101-.065.152-.165.152-.3V9.93c0-.295-.087-.522-.262-.684-.174-.161-.426-.242-.754-.242-.346 0-.62.075-.824.226-.2.152-.336.33-.406.536l-1.32-.188c.104-.364.275-.67.515-.914.24-.247.533-.432.879-.555.346-.125.73-.187 1.148-.187.29 0 .577.034.864.101.286.068.548.18.785.336.237.154.427.364.57.63.146.265.219.597.219.995V14h-1.36v-.824h-.046a1.725 1.725 0 0 1-.364.469c-.153.143-.347.259-.582.347a2.347 2.347 0 0 1-.816.13Zm.367-1.04c.284 0 .53-.056.738-.168.209-.114.369-.266.48-.453.115-.188.173-.392.173-.613v-.707a.665.665 0 0 1-.227.101 3.205 3.205 0 0 1-.351.082c-.13.024-.26.044-.387.063l-.332.047c-.211.028-.4.075-.567.14a.941.941 0 0 0-.394.274.668.668 0 0 0-.145.445c0 .26.095.457.285.59.19.133.433.199.727.199Zm7.005 1.035c-.599 0-1.113-.131-1.543-.394a2.634 2.634 0 0 1-.988-1.09c-.23-.466-.344-1.003-.344-1.61 0-.609.117-1.147.352-1.613.234-.469.565-.833.992-1.094.43-.263.937-.394 1.523-.394.487 0 .918.09 1.293.27.378.176.678.428.902.753.224.323.352.7.383 1.133h-1.351a1.292 1.292 0 0 0-.39-.723c-.204-.195-.476-.293-.817-.293-.29 0-.543.079-.762.235-.219.154-.39.375-.512.664-.12.289-.18.635-.18 1.039 0 .409.06.76.18 1.055.12.291.288.517.504.675.219.157.475.235.77.235.208 0 .394-.04.558-.117.167-.081.306-.197.418-.348.112-.151.189-.335.23-.55h1.352c-.034.424-.159.8-.375 1.128a2.22 2.22 0 0 1-.883.766c-.372.182-.81.273-1.312.273Zm5.185-2-.004-1.707h.227L102.007 8h1.653l-2.653 2.953h-.293l-1.086 1.164ZM98.34 14V6h1.414v8H98.34Zm3.766 0-1.953-2.73.953-.997L103.796 14h-1.691Zm2.725 0V6h3.062c.578 0 1.059.091 1.441.273.386.18.674.426.864.739.192.312.289.666.289 1.062 0 .326-.063.604-.188.836-.125.23-.293.416-.504.559a2.128 2.128 0 0 1-.707.308v.078c.284.016.556.103.817.262.263.156.478.378.644.664.167.287.25.633.25 1.04 0 .413-.1.786-.3 1.117-.201.328-.503.587-.907.777-.403.19-.911.285-1.523.285h-3.238Zm1.449-1.21h1.558c.526 0 .905-.101 1.137-.302a.989.989 0 0 0 .352-.781 1.198 1.198 0 0 0-.676-1.094 1.662 1.662 0 0 0-.774-.168h-1.597v2.344Zm0-3.388h1.433c.25 0 .476-.045.676-.136.201-.094.358-.226.473-.395.117-.172.176-.375.176-.61 0-.31-.11-.564-.329-.765-.216-.2-.537-.3-.964-.3h-1.465v2.206ZM113.576 6v8h-1.414V6h1.414Zm1.619 8V8h1.414v6h-1.414Zm.711-6.852a.824.824 0 0 1-.578-.222.717.717 0 0 1-.243-.543c0-.214.081-.395.243-.543a.816.816 0 0 1 .578-.227.81.81 0 0 1 .578.227c.161.148.242.33.242.543a.72.72 0 0 1-.242.543.817.817 0 0 1-.578.222Zm5.318.852v1.094h-3.449V8h3.449Zm-2.598-1.438h1.414v5.633c0 .19.029.336.086.438.06.099.138.167.235.203a.895.895 0 0 0 .32.055c.089 0 .169-.007.242-.02.076-.013.133-.025.172-.035l.238 1.105a3.086 3.086 0 0 1-.324.086c-.138.032-.307.05-.508.055a2.307 2.307 0 0 1-.957-.16 1.483 1.483 0 0 1-.675-.555c-.165-.25-.245-.562-.243-.937V6.563ZM122.493 14v-.898l3.094-3.88v-.05h-2.992V8h4.723v.965l-2.946 3.812v.051h3.047V14h-4.926Z" fill="#fff"/>
</svg>
